T: Kilnamona
M: 4/4
L: 1/8
K: Dmaj
(3ABA (3FGA D>E (3FGA | (3ABA G2 E3 F | G2 E2 B>EG>A | (3BcB A>G F>DC>D |ADFA DAFG | A2 G2 E3 F | G2 E2 B>A^G>A | D2 (3DDD D2 :|f3 f fedf | e3 e e>dB>c | d>ed>B (3ABA (3FGA | B>e (3eee e>Ad>e | f>A (3def A>f (3agf | e>Ac>e A>ec>e | d2 (3edB A2 (3FGA | B>d (3ddd d2 :|A2 FE DEFA | A2 G2 E3 F | G2 E2 BEGA | B2 AG FDCD |ADFA DAFG | A2 G2 E3 F | G2 E2 BA^GA | D2 D2 D2 :|f3 f fedf | e3 e edBc | dedB A2 FA | B2 e2 eAde | fAdf Afaf | eAce Aece | dedB A2 FA | B2 d2 d2 :|
